X:1
T: The Isle of Mull
C:
R:Strathspey
Q: 128
K:A
M:4/4
L:1/16
|:C2D2|E3E E3E EE3 E3E|FE3 E3E E4 E2E2|c3A A2A2 d2c2 B2A2|cB3 B3c B4 c2d2|
e3e e2e2 f2e2 d2c2|d2c2 B2A2 G4 e2d2|c3B A2F2 E2C2 E2F2|A2c2 B3A A4 c2e2|
f2d2 a3g f2e2 A2B2|ce3 e3c e4 c2B2|A3B A2F2 =F2C2 c2B2|A3F G2=F2 ^F4 E2D2|
C3D E2E2 F2E2 A2B2|c2d2 c2B2 A4 G2F2|E3E E2E2 EE3 A2B2|cA3 AF3 A4:|
